icons/signature.svg

<?xml version="1.0" encoding="UTF-8"?>
<svg width="24px" height="24px" viewBox="0 0 24 24" version="1.1" xmlns="http://www.w3.org/2000/svg" xmlns:xlink="http://www.w3.org/1999/xlink">
    <!-- Generator: Sketch 40.3 (33839) - http://www.bohemiancoding.com/sketch -->
    <title>signature</title>
    <desc>Created with Sketch.</desc>
    <defs></defs>
    <g id="Page-1" stroke="none" stroke-width="1" fill="none" fill-rule="evenodd">
        <g id="signature" fill="#777777">
            <path d="M9.12911603,18.1810881 C8.72789492,18.1025883 8.35865521,17.9455888 8.03884128,17.7188116 C7.86439732,17.5937934 7.5067872,17.2361833 7.41956522,17.0966281 C7.39339863,17.0559246 7.32943585,16.97161 7.27710266,16.9105546 C7.22476947,16.8524066 7.18115848,16.7884438 7.18115848,16.768092 C7.18115848,16.7506476 7.14045489,16.6837774 7.0910291,16.6169073 C6.97182573,16.4540929 6.81773356,16.2040566 6.74795598,16.0528718 C6.71306719,15.9830942 6.6549192,15.8842426 6.61421561,15.8319094 C6.57351202,15.7795762 6.52699363,15.6923543 6.50664183,15.6371137 C6.48919744,15.5818731 6.43977165,15.4859289 6.39616066,15.4219661 C6.35254967,15.3580033 6.30312388,15.2620592 6.28277209,15.2068186 C6.26532769,15.151578 6.2129945,15.0469116 6.16647611,14.9742266 C6.11995772,14.9015417 6.06762454,14.7910605 6.05018014,14.7329125 C6.02982834,14.6747645 5.98912475,14.5933573 5.96005076,14.5555611 C5.92806937,14.5177649 5.87864358,14.4189134 5.84666219,14.3375062 C5.81468079,14.256099 5.74781061,14.1194512 5.70129222,14.0351366 C5.65477383,13.9508221 5.60825544,13.8461557 5.59953324,13.7996373 C5.58790365,13.7560263 5.54138526,13.6571747 5.49777427,13.5815824 C5.45125588,13.50599 5.40183009,13.4071384 5.39310789,13.3577126 C5.38147829,13.3111942 5.32914511,13.1919908 5.27681192,13.0960467 C5.22447873,13.0001025 5.16633074,12.8692695 5.14597895,12.8053067 C5.12562715,12.7413439 5.07910876,12.6424924 5.04421997,12.5872518 C5.00933118,12.5320112 4.96281279,12.4331596 4.94536839,12.3691968 C4.9250166,12.305234 4.86396121,12.1685863 4.81162802,12.0639199 C4.75929484,11.9592535 4.70986905,11.8371428 4.69823945,11.7935318 C4.68660985,11.7470134 4.64881366,11.6626988 4.61101747,11.6045508 C4.57322128,11.5464028 4.52088809,11.4242921 4.4918141,11.3370701 C4.4627401,11.2498481 4.41040692,11.1306447 4.37551812,11.0754041 C4.34062933,11.0201635 4.29411094,10.921312 4.27375915,10.8573492 C4.25340735,10.7933864 4.19235197,10.6538312 4.14001878,10.5491649 C4.08477819,10.4444985 4.0411672,10.3427395 4.0411672,10.3252951 C4.0411672,10.3049433 3.98883401,10.1857399 3.92487123,10.0607218 C3.86090844,9.93570359 3.80857526,9.81650022 3.80857526,9.79905582 C3.80857526,9.77870403 3.75624207,9.65659326 3.69227928,9.52866769 C3.6283165,9.39783472 3.57598331,9.27281655 3.57598331,9.25246475 C3.57598331,9.22920556 3.52946492,9.12744658 3.47422433,9.028595 C3.41898374,8.92683602 3.37246536,8.82507705 3.37246536,8.80181785 C3.37246536,8.77855866 3.32013217,8.65644789 3.25616938,8.53142972 C3.1922066,8.40641154 3.13987341,8.28139337 3.13987341,8.25813418 C3.13987341,8.23196758 3.10207722,8.14183821 3.05555883,8.05752362 C3.00613304,7.97320904 2.94798505,7.83946867 2.92181846,7.75806149 C2.89565187,7.67956171 2.82878168,7.52837695 2.77354109,7.42371057 C2.71830051,7.31904419 2.67468952,7.21437782 2.67468952,7.18821122 C2.67468952,7.16204463 2.63689332,7.07482265 2.59037494,6.99341547 C2.54385655,6.91200829 2.48861596,6.78699012 2.47117156,6.71430513 C2.45081977,6.64452755 2.40139398,6.51369458 2.35487559,6.4235652 C2.3112646,6.33634322 2.26474621,6.23167684 2.25311661,6.19097325 C2.24148702,6.15026966 2.18043163,6.0048997 2.11646884,5.86243713 C2.02924686,5.66764137 2.00017287,5.5716972 2.00017287,5.44958642 C1.99726547,5.26351287 2.02924686,5.21699448 2.23276482,5.09779111 C2.38976438,5.00475433 2.68631911,4.97277293 2.89274447,5.02510612 C3.05846623,5.06580971 3.29978037,5.22280928 3.34920616,5.31875345 C3.36665056,5.35945705 3.42189114,5.44377163 3.46840953,5.50773441 C3.57598331,5.65891918 3.71844588,5.87697413 3.80857526,6.03106629 C3.84927885,6.09793648 3.91033423,6.19097325 3.94813042,6.23749164 C4.0498894,6.36541721 4.27375915,6.71139773 4.27375915,6.73756433 C4.27375915,6.74919393 4.31155534,6.80443451 4.35807373,6.8596751 C4.40168472,6.91491569 4.4627401,7.00795247 4.4918141,7.06319305 C4.52088809,7.11843364 4.57612868,7.20565562 4.61392487,7.25217401 C4.69242465,7.34811819 4.84070202,7.57198794 4.9192018,7.7144505 C4.94827579,7.76387629 5.00351638,7.85109827 5.04421997,7.90633886 C5.12853455,8.01972743 5.26518232,8.22615279 5.38729309,8.42676334 C5.43381148,8.49944832 5.49486687,8.5866703 5.52394086,8.6186517 C5.55301485,8.65063309 5.60244064,8.72913287 5.63442204,8.79600305 C5.66640343,8.85996584 5.71582922,8.92974342 5.74199581,8.95300262 C5.7681624,8.97335441 5.808866,9.0402246 5.83212519,9.09546519 C5.85538438,9.15361317 5.90771757,9.23211295 5.94260636,9.27281655 C5.98040256,9.31352014 6.03564314,9.39201992 6.06180974,9.44726051 C6.09088373,9.50250109 6.15193912,9.59553787 6.19555011,9.65077846 C6.2420685,9.70601905 6.27986469,9.76707443 6.27986469,9.78742623 C6.27986469,9.80777802 6.31766088,9.86592601 6.36417927,9.9182592 C6.40779026,9.97059238 6.46884564,10.0578144 6.49501224,10.1101476 C6.52408623,10.1653881 6.58804902,10.2642397 6.6374748,10.3340173 C6.72760418,10.4561281 6.83808536,10.6247572 6.96310353,10.8253678 C7.1113809,11.0666819 7.20441767,11.2062371 7.30617665,11.3457923 C7.36432464,11.4271994 7.41375043,11.5086066 7.41375043,11.526051 C7.41375043,11.5434954 7.45154662,11.6016434 7.49806501,11.656884 C7.541676,11.7121246 7.60273138,11.8051614 7.63180538,11.860402 C7.66087937,11.9156425 7.73065695,12.0174015 7.78589754,12.0871791 C7.89347132,12.2180121 8.00395249,12.2499935 8.04756348,12.1598641 C8.05919308,12.1307901 8.05919308,11.2062371 8.04756348,10.1014254 C8.01848949,7.50221035 8.02430429,7.41208097 8.23654444,7.05447086 C8.47204378,6.66197195 8.8325613,6.4119356 9.41113377,6.24330644 C9.7164107,6.15317706 9.74257729,6.15026966 10.2775388,6.14736226 C10.8241298,6.14736226 10.832852,6.14736226 11.1497586,6.24621384 C11.5945907,6.37995421 11.83009,6.50497238 12.1499039,6.77245312 C12.4202921,6.99632287 12.6499766,7.26961841 12.7953466,7.54291394 C12.8302354,7.60687673 12.8883834,7.69991351 12.9261796,7.7493393 C12.9639757,7.79876508 12.9959571,7.85400567 12.9959571,7.86854267 C12.9959571,7.88598706 13.0424755,7.96739425 13.0977161,8.05170883 C13.1529567,8.13311601 13.2256417,8.26394898 13.2576231,8.33663396 C13.2925119,8.40931894 13.3390303,8.49363352 13.3622895,8.51980012 C13.3884561,8.54887411 13.4495114,8.65063309 13.4989372,8.74948467 C13.6675664,9.07802079 13.737344,9.20303896 13.795492,9.29026094 C13.8536399,9.37748292 13.9757507,9.59844527 14.1182133,9.8833704 C14.1618243,9.97059238 14.2257871,10.083981 14.2606759,10.1304993 C14.2955646,10.1799251 14.342083,10.2642397 14.3624348,10.3194803 C14.3827866,10.3747209 14.429305,10.4590355 14.4612864,10.5055539 C14.5252492,10.5956832 14.6444526,10.8166456 14.7956373,11.1277373 C14.9497295,11.4446438 15.1532474,11.6481618 15.2172102,11.5464028 C15.2259324,11.5318658 15.2404694,11.2207741 15.2491916,10.8544418 C15.2695434,10.0142034 15.3131544,9.43853831 15.368395,9.22339076 C15.3945616,9.13035398 15.4381726,8.95881742 15.4672466,8.83961404 C15.499228,8.72041067 15.5486538,8.5895777 15.5777277,8.54596671 C15.6097091,8.50526312 15.6620423,8.41804114 15.6940237,8.35407836 C15.8074123,8.13020861 16.0778004,7.92959805 16.4325032,7.80748728 C16.6214841,7.7435245 16.7028913,7.7318949 16.9907238,7.7318949 C17.2872786,7.7318949 17.3570561,7.7435245 17.5692963,7.81620948 C17.8454992,7.91215366 18.0664616,8.04589403 18.2728869,8.24650458 C18.4793123,8.45002253 18.5607195,8.54596671 18.6217748,8.66226269 C18.6479414,8.71750327 18.6944598,8.79018826 18.7235338,8.82216965 C18.7526078,8.85415104 18.8514594,9.0315024 18.9415888,9.21466856 C19.0346256,9.39783472 19.1276623,9.58100087 19.1509215,9.62170446 C19.1741807,9.66240806 19.2236065,9.76707443 19.2643101,9.85429641 C19.3050137,9.94151839 19.3573469,10.0461848 19.3806061,10.0868884 C19.4038653,10.1275919 19.4503837,10.2177213 19.4823651,10.2904063 C19.5143464,10.3630913 19.5637722,10.4677577 19.5928462,10.5229983 C19.7033274,10.7381458 19.7236792,10.7788494 20.0638449,11.4911622 C20.1626965,11.6975876 20.2237519,11.7528282 20.3313257,11.7382912 C20.3807514,11.7324764 20.406918,11.6917728 20.4447142,11.5783842 C20.4708808,11.4940696 20.5173992,11.3894033 20.5464732,11.3457923 C20.5784546,11.2992739 20.6220656,11.2120519 20.6453248,11.1480891 C20.7209172,10.9562008 20.9244351,10.7061644 21.0668977,10.6363868 C21.1744715,10.5840536 21.2355268,10.5782388 21.4506744,10.586961 C21.6774515,10.5956832 21.7181551,10.6044054 21.8257289,10.6829052 C21.9856359,10.7962938 22.0234321,10.9009602 21.9798211,11.1306447 C21.9623767,11.2265889 21.9216731,11.3806811 21.8896917,11.4737178 C21.8577103,11.5667546 21.8053771,11.7499208 21.7733957,11.8836611 C21.7414143,12.0144941 21.6890811,12.1860307 21.6570998,12.2616231 C21.622211,12.3372154 21.5698778,12.4884002 21.5378964,12.6017888 C21.505915,12.71227 21.4564892,12.8431029 21.4274152,12.8925287 C21.4012486,12.9390471 21.360545,13.0291765 21.3401932,13.0902319 C21.2646008,13.3286386 21.0000275,13.5408788 20.668584,13.6339155 C20.4098254,13.7036931 20.3022517,13.7066005 20.0405857,13.6455451 C19.7963642,13.5903046 19.6219202,13.4972678 19.4503837,13.331546 C19.2817545,13.171639 19.0724217,12.9128805 19.0724217,12.8634547 C19.0724217,12.8431029 19.0259034,12.7704179 18.9706628,12.7006404 C18.9154222,12.6308628 18.8689038,12.5581778 18.8689038,12.5407334 C18.8689038,12.5203816 18.8223854,12.436067 18.7642374,12.3517524 C18.7089968,12.2674379 18.6421266,12.1511419 18.6188674,12.0959013 C18.5956083,12.0377533 18.5519973,11.9650683 18.5229233,11.9330869 C18.4938493,11.9011055 18.4386087,11.816791 18.4037199,11.744106 C18.3659237,11.671421 18.3135905,11.5812916 18.2816091,11.5434954 C18.2525351,11.5027918 18.2002019,11.4126625 18.1682206,11.3399775 C18.1362392,11.2672925 18.0926282,11.1887927 18.069369,11.1626261 C18.0315728,11.1190151 17.9123694,10.9096824 17.7669994,10.6218498 C17.7233885,10.5404427 17.6739627,10.4503133 17.6507035,10.4241467 C17.6099999,10.3747209 17.4588151,10.3601839 17.4297411,10.4037949 C17.4210189,10.4183319 17.4268337,10.8806084 17.4442781,11.4301068 C17.4878891,12.8663621 17.4878891,13.8170817 17.4471855,14.0409514 C17.4268337,14.1456178 17.3745005,14.3520432 17.3279821,14.5003205 C17.261112,14.7125607 17.217501,14.8026901 17.1099272,14.9248008 C16.7406875,15.3609107 15.9993007,15.5440769 15.3335062,15.3667255 C14.8712297,15.2417074 14.4525642,14.9422452 14.0280839,14.4334504 C13.9641211,14.357858 13.8681769,14.2444694 13.8158438,14.183414 C13.70827,14.0613032 13.6239554,13.9479147 13.4785854,13.7356745 C13.4233448,13.6542673 13.3564747,13.5699528 13.3303081,13.5466936 C13.3041415,13.5263418 13.2576231,13.4594716 13.2285491,13.404231 C13.1994751,13.346083 13.1413271,13.2675832 13.1006235,13.229787 C13.0599199,13.1890834 13.0250311,13.1425651 13.0250311,13.1222133 C13.0250311,13.1018615 12.9756053,13.0262691 12.91455,12.9535841 C12.8069762,12.8227511 12.7226616,12.7035478 12.6267174,12.5465482 C12.5976434,12.5000298 12.5191437,12.3895486 12.4522735,12.2965118 C12.3824959,12.2034751 12.3272553,12.1191605 12.3272553,12.1075309 C12.3272553,12.0959013 12.2807369,12.0348459 12.2254963,11.9679757 C12.1702557,11.9040129 12.1237373,11.8371428 12.1237373,11.8196984 C12.1237373,11.802254 12.0714042,11.7237542 12.0074414,11.642347 C11.9434786,11.5638472 11.8911454,11.4853474 11.8911454,11.4737178 C11.8911454,11.4591808 11.8533492,11.3952181 11.8068308,11.3283479 C11.7632198,11.2614777 11.7021644,11.1713483 11.6759978,11.1277373 C11.6207573,11.0347005 11.4724799,11.0143487 11.4434059,11.0928485 C11.4230541,11.1422743 11.4637577,12.4854928 11.5131835,13.4594716 C11.5829611,14.8143197 11.6004055,15.2300778 11.6062203,15.88715 L11.6149425,16.5849259 L11.5160909,16.8902028 C11.3096655,17.518201 10.9375184,17.8787186 10.2775388,18.0967735 C10.0798356,18.1636437 9.98389143,18.1752733 9.62337392,18.1839955 C9.39078197,18.1898103 9.16981962,18.1869029 9.12911603,18.1810881 L9.12911603,18.1810881 Z" id="Shape"></path>
        </g>
    </g>
</svg>

<svg xmlns="http://www.w3.org/2000/svg" viewBox="0 0 24 24">
  <path fill-rule="evenodd" d="M9.13 18.18c-.402-.077-.77-.234-1.09-.46-.176-.126-.533-.484-.62-.623-.027-.04-.09-.125-.143-.186-.052-.058-.096-.122-.096-.142 0-.017-.04-.084-.09-.15-.118-.164-.272-.414-.342-.565-.035-.07-.093-.17-.134-.22-.04-.053-.087-.14-.107-.196-.018-.055-.067-.15-.11-.215-.044-.064-.094-.16-.114-.215-.018-.055-.07-.16-.117-.233-.046-.072-.098-.183-.116-.24-.02-.06-.06-.14-.09-.178-.032-.038-.08-.137-.113-.218-.032-.082-.1-.22-.146-.303-.045-.084-.092-.19-.1-.235-.012-.044-.06-.143-.102-.218-.047-.076-.096-.175-.105-.224-.012-.047-.064-.166-.116-.262-.053-.096-.11-.227-.13-.29-.02-.065-.068-.164-.103-.22-.035-.054-.08-.153-.1-.217-.02-.065-.08-.2-.132-.306-.053-.105-.102-.227-.114-.27-.01-.047-.05-.13-.087-.19-.037-.058-.09-.18-.118-.267-.03-.087-.082-.206-.116-.262-.035-.055-.082-.154-.102-.218-.02-.064-.082-.203-.134-.308-.055-.106-.1-.207-.1-.225 0-.02-.05-.14-.115-.264-.064-.124-.116-.243-.116-.26 0-.02-.054-.143-.118-.27-.064-.132-.116-.257-.116-.278 0-.023-.047-.125-.102-.223-.055-.103-.102-.205-.102-.228 0-.023-.052-.146-.116-.27-.064-.126-.116-.25-.116-.274 0-.026-.038-.116-.084-.2-.05-.085-.108-.22-.134-.3-.026-.078-.093-.23-.148-.334-.056-.105-.1-.21-.1-.236 0-.026-.037-.113-.084-.195-.046-.08-.1-.206-.12-.28-.02-.068-.07-.2-.115-.29-.044-.087-.09-.19-.102-.232-.012-.04-.073-.185-.137-.328C2.03 5.668 2 5.572 2 5.45c-.003-.186.03-.233.233-.352.157-.093.453-.125.66-.073.165.04.407.198.456.294.017.04.072.124.118.188.108.15.25.37.34.523.04.068.102.16.14.207.102.128.326.474.326.5 0 .012.038.067.084.123.044.055.105.148.134.203.03.055.084.143.122.19.078.095.227.32.305.46.028.05.084.138.124.193.085.114.22.32.343.52.047.073.108.16.137.193.03.03.078.11.11.176.032.064.082.134.108.157.026.02.067.087.09.142.023.06.076.137.11.178.038.04.094.12.12.174.03.056.09.15.134.204.046.056.084.117.084.137 0 .02.038.08.084.13.044.054.105.14.13.193.03.055.094.154.143.224.09.122.2.29.326.49.148.243.24.382.343.522.058.08.108.163.108.18 0 .017.038.076.084.13.044.056.105.15.134.204.03.056.1.157.154.227.107.13.218.163.262.073.01-.03.01-.954 0-2.06-.03-2.598-.024-2.688.19-3.046.234-.392.595-.642 1.173-.81.306-.09.333-.094.868-.097.546 0 .555 0 .872.1.445.133.68.258 1 .525.27.224.5.498.645.77.035.065.093.158.13.207.04.05.07.104.07.12s.047.097.103.182c.055.08.128.212.16.285.035.072.08.157.104.183.026.03.088.13.137.23.168.328.237.453.295.54.06.087.18.308.323.593.044.088.108.2.143.247.036.05.082.134.102.19.02.055.067.14.1.186.063.09.182.31.334.622.154.317.357.52.42.418.01-.014.024-.325.033-.692.02-.84.063-1.415.118-1.63.027-.094.07-.265.1-.384.03-.12.08-.25.11-.294.032-.04.084-.128.116-.192.113-.224.384-.424.74-.547.187-.063.27-.075.557-.075.297 0 .367.012.58.084.275.096.496.23.703.43.206.204.288.3.35.416.025.056.07.128.1.16s.128.21.22.393c.092.183.185.366.208.407.024.04.074.145.114.232.04.088.093.192.117.233.024.04.07.13.102.203.032.073.082.178.11.233.11.215.132.256.472.968.1.208.16.263.267.248.05-.006.077-.046.115-.16.026-.084.072-.19.1-.232.033-.047.077-.134.1-.198.076-.192.28-.442.422-.512.107-.052.17-.058.384-.05.227.01.268.018.376.097.16.113.197.218.154.448-.018.097-.058.25-.09.344-.032.093-.085.276-.117.41-.032.13-.084.302-.116.378-.035.075-.087.226-.12.34-.03.11-.08.24-.11.29-.026.047-.066.137-.087.198-.075.24-.34.45-.67.544-.26.07-.368.073-.63.012-.244-.056-.418-.15-.59-.314-.168-.16-.378-.42-.378-.47 0-.02-.046-.092-.1-.16-.057-.07-.103-.144-.103-.16 0-.022-.048-.106-.106-.19-.055-.085-.122-.2-.145-.256-.024-.058-.068-.13-.097-.163-.03-.032-.084-.116-.12-.19-.037-.072-.09-.162-.12-.2-.03-.04-.083-.13-.115-.203-.032-.073-.075-.15-.1-.177-.036-.044-.156-.253-.3-.54-.045-.083-.094-.173-.117-.2-.04-.048-.19-.063-.22-.02-.01.015-.003.478.014 1.027.044 1.436.044 2.387.003 2.61-.02.106-.072.312-.12.46-.066.213-.11.303-.217.425-.37.436-1.11.62-1.776.442-.463-.125-.88-.425-1.306-.934l-.212-.25c-.108-.122-.192-.235-.337-.447-.057-.082-.124-.166-.15-.19-.026-.02-.072-.087-.1-.142-.03-.058-.09-.136-.13-.174-.04-.04-.075-.087-.075-.108 0-.02-.05-.096-.11-.168-.108-.13-.192-.25-.288-.407-.03-.047-.108-.157-.175-.25-.07-.094-.125-.178-.125-.19 0-.01-.046-.072-.102-.14-.055-.063-.1-.13-.1-.147 0-.018-.054-.096-.118-.178-.064-.078-.116-.157-.116-.168 0-.015-.037-.08-.083-.146-.044-.067-.105-.157-.13-.2-.056-.093-.205-.114-.234-.035-.02.05.02 1.392.07 2.366.07 1.354.087 1.77.093 2.427l.01.698-.1.305c-.206.628-.578.99-1.238 1.207-.198.067-.294.078-.655.087-.232.006-.453.003-.494-.003z"/>
</svg>
